X: 172
T: Cherokee Trail
B: canberra pickers and fiddlers
B: old time tunes update
B: tunes
L:1/8
Q: 1/4=100
K:C
V:1 
|: Bd | "C"e2e>g | edBA | "G"BdB/A/G |B2Bd | 
"C"e2e>g| edBA | "G"BdB/A/G|"Em"E2 :|
|: EG|"D"A2A>B|AGED | "Em"EE2D | E2EG|
"D"A2A>B|AGED  | "Em"EDB,D |E2 :|
% abcbook-tune_id 67a7d9ec28e29c45bb628ae6
% abcbook-tune_composer_id 
% abcbook-link-0 https://www.youtube.com/watch?v=bxnJkOo_ABc
% abcbook-link-title-0 Old Salt - Cherokee Trail - Live
% abcbook-boost 0
% abcbook-difficulty 0
% abcbook-tags old time tunes
% abcbook-tablature 
% abcbook-transpose -5
% abcbook-tuning GDAD
% abcbook-lastupdated 1739070782058
% abcbook-src-url 
% abcbook-soundfonts 
% abcbook-repeats 1
%%MIDI transpose -5


